X:12
T:Bourree a trois de La Chapelotte
Z:Jack Campin, 2014
F:http://www.campin.me.uk/Music/YoupNannetteD.abc
S:p19, p1000208.jpg
M:3/8
L:1/8
Q:1/4=120
K:D
F|F2   G|A2A|B/A/Bc|BAd|d2   c|c2B|[1 A/B/AG|F2 :|\
                                   [2 A/e/ee|d2z||
  f/f/ff|BBB|e/e/ee|A2A|d/d/dd|ccB|[1 A/B/AG|F2A:|\
                                   [2 A/e/ee|d2 |]

